src/flags/country-flag/1F1EA-1F1E8.svg

<svg id="emoji" viewBox="0 0 72 72" xmlns="http://www.w3.org/2000/svg">
  <g id="grid">
    <path fill="#b3b3b3" d="M68,4V68H4V4H68m4-4H0V72H72V0Z"/>
    <path fill="none" stroke="#00a5ff" stroke-miterlimit="10" stroke-width="0.1" d="M12.923,10.9583H59.0769A1.9231,1.9231,0,0,1,61,12.8814V59.0352a1.9231,1.9231,0,0,1-1.9231,1.9231H12.9231A1.9231,1.9231,0,0,1,11,59.0352V12.8813A1.923,1.923,0,0,1,12.923,10.9583Z"/>
    <rect x="16" y="4" rx="2.2537" ry="2.2537" width="40" height="64" fill="none" stroke="#00a5ff" stroke-miterlimit="10" stroke-width="0.1"/>
    <rect x="16" y="4" rx="2.2537" ry="2.2537" width="40" height="64" transform="translate(72) rotate(90)" fill="none" stroke="#00a5ff" stroke-miterlimit="10" stroke-width="0.1"/>
    <circle cx="36" cy="36" r="29" fill="none" stroke="#00a5ff" stroke-miterlimit="10" stroke-width="0.1"/>
  </g>
  <g id="color">
    <rect x="5" y="17" width="62" height="38" fill="#fcea2b"/>
    <rect x="5" y="45" width="62" height="10" fill="#d22f27"/>
    <rect x="5" y="36" width="62" height="9" fill="#1e50a0"/>
    <ellipse cx="36" cy="36" rx="4.5" ry="6" fill="#92d3f5"/>
    <path fill="#5c9e31" d="M40.5,36c0,3.3137-2.0147,6-4.5,6s-4.5-2.6863-4.5-6Z"/>
    <line x1="36" x2="36" y1="46" y2="42" fill="none" stroke="#d22f27" stroke-miterlimit="10" stroke-width="2"/>
    <path fill="none" stroke="#f1b31c" stroke-linecap="round" stroke-linejoin="round" stroke-width="2" d="M42.0652,42A10.9284,10.9284,0,0,0,44.5,35V30H46"/>
    <path fill="none" stroke="#f1b31c" stroke-linecap="round" stroke-linejoin="round" stroke-width="2" d="M26,30h1.5v5a10.9284,10.9284,0,0,0,2.4348,7"/>
    <path fill="none" stroke="#6a462f" stroke-linecap="round" stroke-linejoin="round" stroke-width="2" d="M29,26c3.5-1,5.25,0,7,3,1.75-3,3.5-4,7-3"/>
    <ellipse cx="36" cy="36" rx="4.5" ry="6" fill="none" stroke="#d22f27" stroke-miterlimit="10" stroke-width="2"/>
  </g>
  <g id="line">
    <rect x="5" y="17" width="62" height="38" fill="none" stroke="#000" stroke-linecap="round" stroke-linejoin="round" stroke-width="2"/>
  </g>
</svg>

<svg viewBox="0 0 72 72" xmlns="http://www.w3.org/2000/svg"><path fill="#b3b3b3" d="M68 4v64H4V4h64m4-4H0v72h72V0z"/><path fill="none" stroke="#00a5ff" stroke-miterlimit="10" stroke-width=".1" d="M12.923 10.958h46.154A1.923 1.923 0 0161 12.881v46.154a1.923 1.923 0 01-1.923 1.923H12.923A1.923 1.923 0 0111 59.035V12.881a1.923 1.923 0 011.923-1.923z"/><rect x="16" y="4" rx="2.254" ry="2.254" width="40" height="64" fill="none" stroke="#00a5ff" stroke-miterlimit="10" stroke-width=".1"/><rect x="16" y="4" rx="2.254" ry="2.254" width="40" height="64" transform="rotate(90 36 36)" fill="none" stroke="#00a5ff" stroke-miterlimit="10" stroke-width=".1"/><circle cx="36" cy="36" r="29" fill="none" stroke="#00a5ff" stroke-miterlimit="10" stroke-width=".1"/><path d="M5 17h62v38H5z" stroke-linecap="round" stroke-miterlimit="10" stroke-width="6" stroke="#fff" fill="none" stroke-linejoin="round"/><path fill="#fcea2b" d="M5 17h62v38H5z"/><path fill="#d22f27" d="M5 45h62v10H5z"/><path fill="#1e50a0" d="M5 36h62v9H5z"/><ellipse cx="36" cy="36" rx="4.5" ry="6" fill="#92d3f5"/><path fill="#5c9e31" d="M40.5 36c0 3.314-2.015 6-4.5 6s-4.5-2.686-4.5-6z"/><path fill="none" stroke="#d22f27" stroke-miterlimit="10" stroke-width="2" d="M36 46v-4"/><path fill="none" stroke="#f1b31c" stroke-linecap="round" stroke-linejoin="round" stroke-width="2" d="M42.065 42a10.928 10.928 0 002.435-7v-5H46m-20 0h1.5v5a10.928 10.928 0 002.435 7"/><path fill="none" stroke="#6a462f" stroke-linecap="round" stroke-linejoin="round" stroke-width="2" d="M29 26c3.5-1 5.25 0 7 3 1.75-3 3.5-4 7-3"/><ellipse cx="36" cy="36" rx="4.5" ry="6" fill="none" stroke="#d22f27" stroke-miterlimit="10" stroke-width="2"/><g><path fill="none" stroke="#000" stroke-linecap="round" stroke-linejoin="round" stroke-width="2" d="M5 17h62v38H5z"/></g></svg>
